!!!!SEGMENT: Wil2006-Beatus_Johannes_apostolus.krn
!!!id: Wil2006
!!!AGN: Motet
!!!SCT: Zenck (1950)
!!!voices: 4
!!!COM: Adrian Willaert
!!!OTL: Beatus Johannes apostolus
**kern	**kern	**kern	**kern
*part4	*part3	*part2	*part1
*staff4	*staff3	*staff2	*staff1
*I"Bassus	*I"Tenor	*I"Altus	*I"Superius
*I'B	*I'T	*I'A	*I'S
*clefF4	*clefGv2	*clefGv2	*clefG2
*k[b-]	*k[b-]	*k[b-]	*k[b-]
*F:	*F:	*F:	*F:
*M2/1	*M2/1	*M2/1	*M2/1
*met(C|)	*met(C|)	*met(C|)	*met(C|)
!!section: Prima pars: Beatus Johannes apostolus
!!!OMD: Prima pars: Beatus Johannes apostolus
=1	=1	=1	=1
0r	0r	0r	0a
=2	=2	=2	=2
0r	0r	0r	1b-y
.	.	.	[1a
=3	=3	=3	=3
0r	0r	0d	1a]
.	.	.	1b-y
=4	=4	=4	=4
0r	0r	1e-X	1cc
.	.	[1d	1dd
=5	=5	=5	=5
0r	0r	1d]	1b-y
.	.	1e	2r
.	.	.	2g
=6	=6	=6	=6
0r	0r	1f	1a
.	.	1g	1b-y
=7	=7	=7	=7
0r	0A	1.e	2.cc
.	.	.	4dd
.	.	.	2ee
.	.	2c	[2ff
=8	=8	=8	=8
0r	1B-y	1d	4ff]
.	.	.	4ee
.	.	.	1dd
.	[1A	1e	.
.	.	.	2cc#i
=9	=9	=9	=9
0D	1A]	1.f	0dd
.	1B-y	.	.
.	.	4e	.
.	.	4d	.
=10	=10	=10	=10
1E-X	1c	1g	1r
[1D	1d	1f	1a
=11	=11	=11	=11
1D]	1B-y	2r	1dd
.	.	2d	.
1E	2r	1g	2cc
.	2G	.	2b-y
=12	=12	=12	=12
1F	1A	2.f	1a
.	.	4e	.
1G	1B-y	1d	[1g
=13	=13	=13	=13
1C	2c	1c	0g]
.	2G	.	.
2r	1c	1e	.
2C	.	.	.
=14	=14	=14	=14
1D	2B-y	2f	0r
.	2A	2f	.
1E	1G	1g	.
=15	=15	=15	=15
2F	1F	2c	1a
2D	.	1d	.
1G	1r	.	2b-y
.	.	4c	2b-y
.	.	4B-y	.
=16	=16	=16	=16
2F	1c	4A	1cc
.	.	4G	.
2E	.	1c	.
1D	2d	.	2.f
.	2d	2B-y	.
.	.	.	4g
=17	=17	=17	=17
1C	1.e	2.c	2a
.	.	.	2g
.	.	4B-y	.
1r	.	4A	2.cc
.	.	4G	.
.	2e	[2A	.
.	.	.	4b-y
=18	=18	=18	=18
1F	2.f	4A]	1a
.	.	4B-y	.
.	.	1c	.
.	4e	.	.
2G	1d	.	2.g
2G	.	2Bni	.
.	.	.	4f
=19	=19	=19	=19
1.A	2c	1c	4e
.	.	.	4c
.	2e	.	2.cc
.	2.f	1r	.
.	.	.	4b-y
2A	.	.	4a
.	4e	.	4g
=20	=20	=20	=20
2.B-y	4d	2r	1f
.	4c	.	.
.	1f	2f	.
4A	.	.	.
1G	.	1g	1r
.	2e	.	.
=21	=21	=21	=21
2.F	1f	1.a	1r
4G	.	.	.
4A	1r	.	[1cc
4B-y	.	.	.
[2c	.	4g	.
.	.	4f	.
=22	=22	=22	=22
2c]	1A	2e	1cc]
4B-y	.	2c	.
4A	.	.	.
1G	1B-y	2.d	1b-y
.	.	4e	.
=23	=23	=23	=23
0F	2.c	2.f	1a
.	4B-y	4g	.
.	4c	1a	1f
.	4B-y	.	.
.	4A	.	.
.	4G	.	.
=24	=24	=24	=24
0r	0F	2r	1cc
.	.	2.A	.
.	.	.	2.a
.	.	4B-y	.
.	.	4c	.
.	.	4d	4b-y
=25	=25	=25	=25
1r	0r	2e	2cc
.	.	1f	2dd
[1A	.	.	[1cc
.	.	4e	.
.	.	4d	.
=26	=26	=26	=26
1A]	0r	2e	2cc]
.	.	1f	4b-y
.	.	.	4a
1G	.	.	2b-y
.	.	2e	2b-y
=27	=27	=27	=27
2.F	0c	2f	0a
.	.	2f	.
4G	.	.	.
2A	.	2e	.
2F	.	[2a	.
=28	=28	=28	=28
1G	1B-y	2a]	1.dd
.	.	2g	.
2D	1A	2f	.
[2F	.	[2a	[2cc
=29	=29	=29	=29
2F]	1F	2a]	2cc]
4E	.	4g	1ff
4D	.	4f	.
1C	1c	1g	.
.	.	.	2ee
=30	=30	=30	=30
1.F	2.A	1f	2dd
.	.	.	4cc
.	4B-y	.	4b-y
.	2c	1f	2.a
2D	2d	.	.
.	.	.	4b-y
=31	=31	=31	=31
2.A	1.c	2.e	2.cc
4B-y	.	4d	8b-yL
.	.	.	8aJ
2c	.	2e	2g
2F	4B-y	2f	[2a
.	4A	.	.
=32	=32	=32	=32
1G	2B-y	1d	2a]
.	2B-y	.	2g
[1D	1A	1r	1a
=33	=33	=33	=33
0D_	2F	1d	1r
.	2.f	.	.
.	.	1d	1a
.	4e	.	.
.	[2d	.	.
=34	=34	=34	=34
1D]	2d]	1f	1a
.	4c	.	.
.	4B-y	.	.
1r	2.A	2f	[1cc
.	.	4e	.
.	4B-y	4d	.
=35	=35	=35	=35
0r	2c	2e	2cc]
.	2A	2.f	2cc
.	1B-y	.	1dd
.	.	4e	.
.	.	[2d	.
=36	=36	=36	=36
1r	1A	2d]	1ee
.	.	2c#i	.
1D	1r	1d	[1ff
=37	=37	=37	=37
1D	1A	2.f	2ff]
.	.	.	4ee
.	.	4g	4dd
[1F	1A	4a	1cc
.	.	4b-y	.
.	.	[2cc	.
=38	=38	=38	=38
2F]	1.c	4cc]	0r
.	.	4b-y	.
2F	.	2.a	.
1E	.	.	.
.	.	4g	.
.	2c	[2g	.
=39	=39	=39	=39
1D	1d	2g]	0r
.	.	2f	.
1C	1e	1g	.
=40	=40	=40	=40
0F	1.f	1.c	1a
.	.	.	1a
.	4e	[2f	.
.	4d	.	.
=41	=41	=41	=41
2.F	2c	2f]	1.cc
.	2f	4e	.
4G	.	4d	.
2A	2e	4c	.
.	.	4A	.
2F	[2f	[2a	2cc
=42	=42	=42	=42
1B-y	4f]	4a]	1dd
.	4e	4g	.
.	2.d	4g	.
.	.	4f	.
1A	.	1a	1ee
.	4c	.	.
.	[2c	.	.
=43	=43	=43	=43
1r	2c]	1d	1.ff
.	2Bni	.	.
1F	[1c	[1a	.
.	.	.	4ee
.	.	.	4dd
=44	=44	=44	=44
2.A	1c]	1a]	2cc
.	.	.	2ff
4B-y	.	.	.
2c	2r	2g	2ee
2A	2c	2a	[2ff
=45	=45	=45	=45
2.B-y	2d	2.f	4ff]
.	.	.	4ee
.	2.f	.	2.dd
4A	.	4g	.
2F	.	2a	.
.	4e	.	4cc
2A	2c	2f	[2cc
=46	=46	=46	=46
1G	1d	1.g	2cc]
.	.	.	2bni
1r	1c	.	[1cc
.	.	[2e	.
=47	=47	=47	=47
1A	1r	2e]	0cc]
.	.	4d	.
.	.	4c	.
2A	1A	1c	.
[2F	.	.	.
=48	=48	=48	=48
2F]	2A	1r	0r
2E	1c	.	.
2.F	.	1a	.
.	2d	.	.
4G	.	.	.
=49	=49	=49	=49
2.A	2.c	2a	1a
.	.	1f	.
4B-y	4B-y	.	.
1c	1A	.	2a
.	.	2e	[2cc
=50	=50	=50	=50
1F	1r	2.f	2cc]
.	.	.	2dd
.	.	4g	.
1r	1f	1a	2.cc
.	.	.	4b-y
=51	=51	=51	=51
1D	2f	1r	0a
.	1d	.	.
2D	.	1f	.
[2F	2c	.	.
=52	=52	=52	=52
2F]	2.d	2f	0r
2G	.	1d	.
.	4e	.	.
2.F	[1f	.	.
.	.	2c	.
4E	.	.	.
=53	=53	=53	=53
2D	1f]	2.d	1ff
1d	.	.	.
.	.	4e	.
.	2r	2.f	2ff
4c	2d	.	[2dd
4B-y	.	4g	.
=54	=54	=54	=54
1A	1e	1.a	2dd]
.	.	.	2cc#i
1D	2f	.	2.dd
.	[2f	[2d	.
.	.	.	4ee
=55	=55	=55	=55
2r	2f]	2d]	1ff
2B-y	2d	4c	.
.	.	4B-y	.
1A	2e	1c	1r
.	2f	.	.
=56	=56	=56	=56
2G	2.g	1d	0r
1G	.	.	.
.	8fL	.	.
.	8eJ	.	.
.	1d	2r	.
2B-y	.	2d	.
=57	=57	=57	=57
2A	2r	1e	1r
2G	2B-y	.	.
1F	1c	2f	2r
.	.	[2f	2a
=58	=58	=58	=58
1B-y	1d	2f]	1b-y
.	.	2d	.
1A	1r	1e	2cc
.	.	.	[2cc
=59	=59	=59	=59
2A	2r	1f	2cc]
1d	2f	.	2a
.	1e	1g	2b-y
2c	.	.	2cc
=60	=60	=60	=60
2.B-y	1d	1b-y	2dd
.	.	.	2.ff
4A	.	.	.
2F	[1d	2a	.
.	.	.	4ee
[2G	.	[2b-y	4dd
.	.	.	4cc
=61	=61	=61	=61
2G]	2d]	4b-]	2b-y
.	.	4g	.
2F	2f	2a	1cc
1G	2e	[1g	.
.	2d	.	2bni
=62	=62	=62	=62
2C	2.c	1g]	1cc
1c	.	.	.
.	4d	.	.
.	2e	1r	1g
2B-y	2d	.	.
=63	=63	=63	=63
2A	2e	1r	1a
4G	2f	.	.
4F	.	.	.
1G	1d	1g	1b-y
=64	=64	=64	=64
0r	0r	1f	1cc
.	.	2e	2cc
.	.	[2d	2b-y
=65	=65	=65	=65
0r	0r	4d]	2.a
.	.	4c	.
.	.	4d	.
.	.	4e	4g
.	.	4f	2a
.	.	4d	.
.	.	[2g	[2b-y
=66	=66	=66	=66
1c	1r	4g]	4b-]
.	.	4f	4a
.	.	2.e	1a
1B-y	1d	.	.
.	.	4d	.
.	.	[2d	2g
=67	=67	=67	=67
1A	1e	2d]	1.a
.	.	2c#i	.
1D	1f	[1d	.
.	.	.	2a
=68	=68	=68	=68
2.G	1g	0d]	2.b-y
4A	.	.	4cc
2B-y	2g	.	2dd
2B-y	2f	.	2dd
=69	=69	=69	=69
2.c	2.e	1g	2g
.	.	.	1cc
4B-y	4d	.	.
2A	2e	1a	.
4G	[2f	.	4b-y
4F	.	.	4a
=70	=70	=70	=70
2G	4f]	2d	2b-y
.	4e	.	.
2A	1e	1a	2cc
1B-y	.	.	1dd
.	2d	2g	.
=	=	=	=
00A	00e	00a	00cc
=||	=||	=||	=||
*M2/1	*M2/1	*M2/1	*M2/1
*met(C|)	*met(C|)	*met(C|)	*met(C|)
!!section: Secunda pars: Ipse est qui evangelij
!!!OMD: Secunda pars: Ipse est qui evangelij
0r	1c	0r	0r
.	2d	.	.
.	[2f	.	.
=71	=71	=71	=71
1A	2f]	0r	0r
.	2e	.	.
2B-y	2.d	.	.
[2d	.	.	.
.	4c	.	.
=72	=72	=72	=72
2d]	2B-y	0r	0r
2c	2A	.	.
2.B-y	2.G	.	.
4A	4A	.	.
=73	=73	=73	=73
2G	4B-y	1r	0r
.	4G	.	.
2F	1c	.	.
2E	.	1g	.
[2G	2B-y	.	.
=74	=74	=74	=74
2G]	1A	2a	0r
2F	.	1cc	.
1G	2G	.	.
.	[2d	2b-y	.
=75	=75	=75	=75
1D	2d]	2.a	1r
.	4c	.	.
.	4B-y	4g	.
1r	1A	2f	1cc
.	.	2e	.
=76	=76	=76	=76
0r	1.B-y	2.d	2dd
.	.	.	1ff
.	.	4e	.
.	.	4f	.
.	.	4d	.
.	2G	[2g	2ee
=77	=77	=77	=77
0r	2.B-y	2g]	2.dd
.	.	2f	.
.	4A	.	4cc
.	2G	2g	2b-y
.	2F	[2c	2a
=78	=78	=78	=78
1r	1c	4c]	2.g
.	.	4d	.
.	.	4e	.
.	.	4f	4a
2r	1r	2.g	4b-y
.	.	.	4g
2C	.	.	[2cc
.	.	4e	.
=79	=79	=79	=79
2D	2r	2f	2cc]
2E	2G	2g	2b-y
1F	2A	1c	1a
.	2F	.	.
=80	=80	=80	=80
1C	1c	2r	1g
.	.	2c	.
1G	1B-y	2d	2r
.	.	2e	2g
=81	=81	=81	=81
1.F	1A	1f	2a
.	.	.	2f
.	2A	1c	1cc
2F	2A	.	.
=82	=82	=82	=82
1.G	1.B-y	2r	1b-y
.	.	2g	.
.	.	2g	1dd
4F	2G	2g	.
4E	.	.	.
=83	=83	=83	=83
1D	2A	2f	2dd
.	2B-y	2d	2dd
2A	2.c	2e	1cc
2A	.	2f	.
.	8B-yL	.	.
.	8AJ	.	.
=84	=84	=84	=84
1G	1B-y	4g	2r
.	.	4f	.
.	.	4e	2dd
.	.	4d	.
1r	2A	4e	2cc
.	.	4c	.
.	2G	[2g	2b-y
=85	=85	=85	=85
0r	1d	2g]	1a
.	.	2f	.
.	1r	2g	1g
.	.	[2b-y	.
=86	=86	=86	=86
1r	1G	4b-]	2r
.	.	4a	.
.	.	4g	2dd
.	.	4f	.
2r	2A	2.e	2cc
2G	2B-y	.	2b-y
.	.	4d	.
=87	=87	=87	=87
2F	4c	2f	2a
.	4B-y	.	.
2E	4A	2c	1g
.	4G	.	.
1D	1A	[1d	.
.	.	.	2f#i
=88	=88	=88	=88
1G	1G	0d]	0g
[1G	[1B-y	.	.
=89	=89	=89	=89
2G]	2B-]	1d	1.dd
2G	2B-y	.	.
2F	4A	1a	.
.	4F	.	.
2A	[2c	.	2cc
=90	=90	=90	=90
1G	2c]	1b-y	2.dd
.	2B-y	.	.
.	.	.	4ee
1F	1c	1a	1ff
=91	=91	=91	=91
1.F	1.A	2.f	2r
.	.	.	2cc
.	.	4e	.
.	.	2d	2dd
2E	2G	2c	2ee
=92	=92	=92	=92
1D	2.A	2d	1.ff
.	.	1a	.
.	4B-y	.	.
1C	1c	.	.
.	.	4g	4ee
.	.	4f	4dd
=93	=93	=93	=93
1r	2r	1g	1ee
.	2c	.	.
1F	1c	[1a	1cc
=94	=94	=94	=94
2D	1d	1a]	0r
2.F	.	.	.
.	[1c	1r	.
4G	.	.	.
[2A	.	.	.
=95	=95	=95	=95
2A]	2c]	1c	1r
4G	4B-y	.	.
4F	4A	.	.
2E	2G	1c	2r
2F	2A	.	2a
=96	=96	=96	=96
2.D	2A	1d	2f
.	2F	.	2.a
4E	.	.	.
1F	2.A	1c	.
.	.	.	4b-y
.	.	.	[2cc
.	4B-y	.	.
=97	=97	=97	=97
0r	1c	2r	2cc]
.	.	2c	4b-y
.	.	.	4a
.	1r	2c	2g
.	.	2c	2a
=98	=98	=98	=98
0r	2r	2.d	1f
.	2f	.	.
.	.	4e	.
.	2f	4f	2r
.	.	4g	.
.	2f	[2a	2cc
=99	=99	=99	=99
0r	1e	2a]	2cc
.	.	2g	2cc
.	2d	1a	1dd
.	[2f	.	.
=100	=100	=100	=100
0r	4f]	1r	2cc
.	4e	.	.
.	1d	.	1ff
.	.	1f	.
.	4c	.	4ee
.	4B-y	.	4dd
=101	=101	=101	=101
0r	2A	2f	2cc
.	2B-y	2f	2dd
.	1c	1e	2.g
.	.	.	4a
=102	=102	=102	=102
0r	1G	1d	4b-y
.	.	.	4cc
.	.	.	1dd
.	1r	1f	.
.	.	.	4cc
.	.	.	4b-y
=103	=103	=103	=103
0r	0r	2.f	2cc
.	.	.	1dd
.	.	4e	.
.	.	4f	.
.	.	4g	.
.	.	[2a	2cc
=104	=104	=104	=104
0r	1r	2a]	1b-y
.	.	2g	.
.	1d	2.f	[1a
.	.	8eL	.
.	.	8dJ	.
=105	=105	=105	=105
2r	2d	2.f	0a]
2F	2d	.	.
.	.	4g	.
2F	1c	2a	.
2F	.	[2f	.
=106	=106	=106	=106
1G	1B-y	2f]	0r
.	.	2e	.
2F	2r	1f	.
[2B-y	[2d	.	.
=107	=107	=107	=107
2B-]	4d]	1B-y	1dd
.	4e	.	.
4A	1f	.	.
4G	.	.	.
2F	.	1r	2dd
2G	4e	.	2dd
.	4d	.	.
=108	=108	=108	=108
4C	2e	1r	1cc
4D	.	.	.
4E	2e	.	.
4F	.	.	.
4G	2.d	2r	2b-y
4A	.	.	.
[2B-y	.	[2f	[2dd
.	4c	.	.
=109	=109	=109	=109
2B-]	4d	4f]	2dd]
.	4e	4g	.
4A	1f	1a	4cc
4G	.	.	4b-y
2A	.	.	2cc
[2B-y	4e	4g	[2dd
.	4d	4f	.
=110	=110	=110	=110
2B-]	2e	2g	2dd]
2A	2f	1f	2cc
1G	2.B-y	.	1b-y
.	.	2e	.
.	4c	.	.
=111	=111	=111	=111
[0F	2d	1f	1a
.	2.c	.	.
.	.	1r	1f
.	4B-y	.	.
.	4A	.	.
.	4G	.	.
=112	=112	=112	=112
1F]	1A	1c	2cc
.	.	.	1cc
1r	1r	2f	.
.	.	[2f	2dd
=113	=113	=113	=113
0r	0r	2f]	2.cc
.	.	2e	.
.	.	.	4b-y
.	.	2.f	2a
.	.	.	[2cc
.	.	4g	.
=114	=114	=114	=114
1r	1F	2a	2cc]
.	.	1f	4b-y
.	.	.	4a
1C	2c	.	2g
.	[2c	2e	[2cc
=115	=115	=115	=115
2F	2c]	1f	4cc]
.	.	.	4b-y
1F	2d	.	1a
.	2.c	1r	.
2E	.	.	2g
.	4B-y	.	.
=116	=116	=116	=116
2.F	2A	1r	2.a
.	1c	.	.
4G	.	.	4b-y
2A	.	2r	1cc
2c	4B-y	2c	.
.	4A	.	.
=117	=117	=117	=117
2B-y	2G	2d	2r
2.A	2.c	2f	2cc
.	.	2e	2cc
4G	4B-y	.	.
2F	[2A	[2d	2dd
=118	=118	=118	=118
1E	2A]	2d]	1ee
.	2G	2c	.
1D	2A	2d	1ff
.	[2d	2f	.
=119	=119	=119	=119
0r	2d]	2f	2dd
.	1c	2g	1ee
.	.	1a	.
.	4B-y	.	4dd
.	4A	.	4cc
=120	=120	=120	=120
2r	1G	1b-y	1dd
2G	.	.	.
2E	2r	2g	2cc
[2F	2c	[2a	2cc
=121	=121	=121	=121
2F]	2c	2a]	2.a
4E	2d	4g	.
4D	.	4f	4b-y
1C	1e	1g	[1cc
=122	=122	=122	=122
2r	1f	1a	1cc]
2F	.	.	.
2F	2c	1r	2r
2G	[2e	.	2b-y
=123	=123	=123	=123
1A	2e]	0r	1cc
.	4d	.	.
.	4c	.	.
1B-y	1d	.	2.f
.	.	.	4g
=124	=124	=124	=124
2F	1c	2r	4a
.	.	.	4b-y
1A	.	2c	2.cc
.	1A	2c	.
.	.	.	4b-y
4G	.	[2d	[2a
4F	.	.	.
=125	=125	=125	=125
1G	1B-y	2d]	2a]
.	.	2e	2g
1F	1c	1f	2a
.	.	.	[2cc
=126	=126	=126	=126
2r	0r	2c	2cc]
2c	.	1e	4b-y
.	.	.	4a
2c	.	.	1cc
2c	.	4d	.
.	.	4c	.
=127	=127	=127	=127
1B-y	1r	1d	1f
2A	2r	1c	2r
[2F	2c	.	2cc
=128	=128	=128	=128
4F]	2c	1A	2cc
4G	.	.	.
2A	2c	.	2cc
1G	2.d	1B-y	1b-y
.	4e	.	.
=129	=129	=129	=129
1F	1.f	0c	1a
1A	.	.	1cc
.	4e	.	.
.	4d	.	.
=130	=130	=130	=130
2A	1e	0r	2cc
2A	.	.	2cc
1B-y	1d	.	2.dd
.	.	.	4ee
=131	=131	=131	=131
0F	2r	1a	0ff
.	2c	.	.
.	2c	2a	.
.	2c	2a	.
=132	=132	=132	=132
1B-y	2.d	1b-y	1ff
.	4e	.	.
[1d	[1f	[1a	[1ff
=133	=133	=133	=133
2d]	1f]	1a]	2ff]
2d	.	.	2ff
1c	1r	2r	1ee
.	.	2g	.
=134	=134	=134	=134
1.B-y	1f	1.b-y	1.dd
.	[1f	.	.
4A	.	2b-y	4cc
4G	.	.	4b-y
=135	=135	=135	=135
1F	2f]	1a	1.cc
.	2f	.	.
1c	1e	2.g	.
.	.	.	2cc
.	.	8fL	.
.	.	8eJ	.
=136	=136	=136	=136
2B-y	0d	2f	2dd
2G	.	2.g	2.b-y
2.B-y	.	.	.
.	.	4f	4cc
.	.	[2f	[2dd
4A	.	.	.
=137	=137	=137	=137
2G	1B-y	2f]	2dd]
2G	.	2e	4cc
.	.	.	4b-y
2F	2c	[1f	2a
2D	[2d	.	[2b-y
=138	=138	=138	=138
1F	2d]	1f]	4b-]
.	.	.	4a
.	2c	.	1a
1G	1B-y	[1d	.
.	.	.	2g
=139	=139	=139	=139
1D	1A	1d]	1a
1r	1r	1r	1r
=	=	=	=
*M3/1	*M3/1	*M3/1	*M3/1
*met(3)	*met(3)	*met(3)	*met(3)
0D	0f	0d	0a
1D	1f	1d	1a
=140	=140	=140	=140
1F	1f	1c	1a
0C	0e	0g	0cc
=141	=141	=141	=141
0G	0d	1.g	1.b-y
.	.	2f	2cc
1G	1B-y	2.d	1dd
.	.	4e	.
=142	=142	=142	=142
1A	1c	2f	1cc
.	.	2e	.
1G	0d	1.g	0b-y
1B-y	.	.	.
.	.	2f	.
=143	=143	=143	=143
1F	1c	1f	1.a
0G	0B-y	1.d	.
.	.	.	4g
.	.	.	4f
.	.	.	1g
.	.	2e	.
=	=	=	=
*M2/1	*M2/1	*M2/1	*M2/1
*met(C|)	*met(C|)	*met(C|)	*met(C|)
1D	[0Al	1.f	2a
.	.	.	2.dd
2.F	.	.	.
.	.	.	4cc
.	.	4e	2ff
4G	.	4d	.
=144	=144	=144	=144
2A	0A_	2c	2ee
2D	.	2.d	1ff
2.F	.	.	.
.	.	4c	.
.	.	[2f	4ee
4G	.	.	4dd
=145	=145	=145	=145
[0Al	0A_	2f]	[0ccl
.	.	4e	.
.	.	4d	.
.	.	4e	.
.	.	4c	.
.	.	2f	.
=146	=146	=146	=146
00A]	00A]	00el	00cc]
==	==	==	==
*-	*-	*-	*-
!!!system-decoration: [*]
!!!RDF**kern: i = editorial accidental
!!!RDF**kern: l = terminal long
!!!ENC: Benjamin Ory
!!!END: 2022/2/22
!!!EED: Benjamin Ory
!!!EEV: 2022/02/06
!!!YEC: Copyright 2022 Benjamin Ory, All Rights Reserved
!!!ONB: Translated from MusicXML on 2022/02/06
